tools/download-figma-icons/icons/outlined-large/euro.svg

<svg width="64" height="64" viewBox="0 0 64 64" fill="none" xmlns="http://www.w3.org/2000/svg">
<path fill-rule="evenodd" clip-rule="evenodd" d="M54.7032 39.4865C54.4032 38.5515 54.6792 37.5195 55.4082 36.8585L60.7542 31.9955L55.4062 27.1295C54.6802 26.4705 54.4032 25.4385 54.7032 24.5025L56.9012 17.6155L49.8372 16.0765C48.8782 15.8665 48.1242 15.1125 47.9142 14.1545L46.3752 7.08849L39.4872 9.28749C38.5532 9.58749 37.5192 9.30949 36.8592 8.58249L31.9962 3.23649L27.1302 8.58449C26.4692 9.30949 25.4402 9.58749 24.5022 9.28749L17.6152 7.08849L16.0762 14.1535C15.8662 15.1125 15.1122 15.8665 14.1542 16.0765L7.08924 17.6155L9.28824 24.5035C9.58624 25.4405 9.30824 26.4695 8.58524 27.1295L3.23624 31.9945L8.58524 36.8605C9.30924 37.5205 9.58624 38.5495 9.28924 39.4845L7.08924 46.3745L14.1532 47.9145C15.1102 48.1215 15.8662 48.8765 16.0762 49.8365L17.6152 56.9015L24.5042 54.7025C24.7542 54.6225 25.0112 54.5835 25.2652 54.5835C25.9632 54.5835 26.6452 54.8735 27.1302 55.4055L31.9962 60.7545L36.8612 55.4055C37.5192 54.6805 38.5492 54.4025 39.4882 54.7025L46.3752 56.9015L47.9142 49.8375C48.1242 48.8765 48.8802 48.1215 49.8402 47.9145L56.9012 46.3745L54.7032 39.4865ZM63.1672 30.1335C63.6902 30.6095 63.9902 31.2895 63.9902 31.9965C63.9892 32.7045 63.6882 33.3815 63.1652 33.8565L57.6552 38.8705L59.9212 45.9685C60.1372 46.6425 60.0562 47.3795 59.7032 47.9935C59.3492 48.6055 58.7502 49.0425 58.0592 49.1925L50.7792 50.7795L49.1932 58.0595C49.0422 58.7515 48.6042 59.3495 47.9932 59.7035C47.3812 60.0565 46.6432 60.1355 45.9702 59.9215L38.8712 57.6545L33.8562 63.1675C33.3812 63.6895 32.7022 63.9895 31.9952 63.9905H31.9942C31.2862 63.9895 30.6082 63.6885 30.1342 63.1655L25.1202 57.6545L18.0202 59.9205C17.3462 60.1345 16.6092 60.0555 15.9972 59.7035C15.3862 59.3495 14.9482 58.7515 14.7972 58.0605L13.2112 50.7795L5.93024 49.1925C5.24124 49.0435 4.64124 48.6055 4.28724 47.9935C3.93324 47.3805 3.85324 46.6425 4.06924 45.9675L6.33624 38.8705L0.823244 33.8555C0.302244 33.3815 0.00124414 32.7045 0.000244141 31.9965C0.000244141 31.2895 0.300244 30.6095 0.823244 30.1335L6.33624 25.1195L4.06924 18.0205C3.85324 17.3485 3.93224 16.6115 4.28624 15.9995C4.63924 15.3865 5.23824 14.9485 5.92924 14.7965L13.2112 13.2115L14.7972 5.92949C14.9482 5.23749 15.3872 4.63849 15.9992 4.28649C16.6112 3.93249 17.3482 3.85249 18.0212 4.06949L25.1202 6.33549L30.1352 0.823488C30.6082 0.301488 31.2862 0.00148828 31.9942 0.000488281H31.9952C32.7022 0.000488281 33.3812 0.300488 33.8562 0.823488L38.8712 6.33549L45.9702 4.06949C46.6422 3.85249 47.3792 3.93249 47.9912 4.28649C48.6032 4.63849 49.0422 5.23749 49.1932 5.92849L50.7792 13.2115L58.0602 14.7965C58.7532 14.9485 59.3512 15.3865 59.7042 15.9995C60.0572 16.6115 60.1372 17.3485 59.9212 18.0215L57.6552 25.1195L63.1672 30.1335ZM37.6691 43.1335C38.6531 42.8155 39.6321 42.3295 40.5781 41.6895C41.2651 41.2265 42.1971 41.4075 42.6611 42.0925C43.1251 42.7795 42.9441 43.7115 42.2581 44.1755C41.0781 44.9725 39.8451 45.5835 38.5941 45.9875C37.0881 46.4765 35.5471 46.7145 34.0201 46.7145C30.1871 46.7145 26.4551 45.2105 23.6421 42.3985C21.9051 40.6615 20.6561 38.5655 19.9641 36.2785H15.8891C15.0601 36.2785 14.3891 35.6065 14.3891 34.7785C14.3891 33.9505 15.0601 33.2785 15.8891 33.2785H19.3971C19.3611 32.8545 19.3351 32.4285 19.3351 31.9995C19.3351 31.4935 19.3621 30.9925 19.4121 30.4965H15.8891C15.0601 30.4965 14.3891 29.8245 14.3891 28.9965C14.3891 28.1685 15.0601 27.4965 15.8891 27.4965H20.0431C20.7481 25.2965 21.9631 23.2795 23.6421 21.5985C28.6111 16.6315 36.4401 15.8775 42.2571 19.8015C42.9431 20.2645 43.1251 21.1975 42.6611 21.8835C42.1991 22.5715 41.2641 22.7515 40.5791 22.2885C35.9481 19.1665 29.7181 19.7655 25.7641 23.7195C24.6481 24.8355 23.8101 26.1235 23.2401 27.4965H37.5991C38.4271 27.4965 39.0991 28.1685 39.0991 28.9965C39.0991 29.8245 38.4271 30.4965 37.5991 30.4965H22.4481C22.3301 31.4195 22.3151 32.3525 22.4161 33.2785H37.5991C38.4271 33.2785 39.0991 33.9505 39.0991 34.7785C39.0991 35.6065 38.4271 36.2785 37.5991 36.2785H23.1511C23.7221 37.7355 24.5891 39.1015 25.7641 40.2775C28.8941 43.4075 33.4551 44.5025 37.6691 43.1335Z" fill="black"/>
</svg>

<svg width="64" height="64" viewBox="0 0 64 64" fill="none" xmlns="http://www.w3.org/2000/svg"><path fill-rule="evenodd" clip-rule="evenodd" d="M54.703 39.486a2.517 2.517 0 0 1 .705-2.627l5.346-4.864-5.348-4.866a2.519 2.519 0 0 1-.703-2.627l2.198-6.886-7.064-1.54a2.526 2.526 0 0 1-1.923-1.921l-1.539-7.067-6.888 2.2c-.934.3-1.968.021-2.628-.706l-4.863-5.346-4.866 5.348a2.522 2.522 0 0 1-2.628.703l-6.887-2.199-1.539 7.065a2.526 2.526 0 0 1-1.922 1.923l-7.065 1.54 2.2 6.887c.297.938.02 1.966-.704 2.627l-5.349 4.864 5.35 4.867a2.525 2.525 0 0 1 .703 2.623l-2.2 6.89 7.064 1.54a2.522 2.522 0 0 1 1.923 1.922l1.54 7.066 6.888-2.2a2.525 2.525 0 0 1 2.626.703l4.866 5.35 4.865-5.35a2.519 2.519 0 0 1 2.627-.703l6.887 2.2 1.54-7.065a2.521 2.521 0 0 1 1.925-1.923l7.061-1.54-2.198-6.888Zm8.464-9.352c.523.476.823 1.155.823 1.863a2.521 2.521 0 0 1-.825 1.86l-5.51 5.014 2.266 7.097a2.524 2.524 0 0 1-.218 2.025 2.52 2.52 0 0 1-1.644 1.2l-7.28 1.587-1.586 7.28a2.526 2.526 0 0 1-1.2 1.643 2.527 2.527 0 0 1-2.023.218l-7.099-2.267-5.015 5.513a2.527 2.527 0 0 1-1.86.823h-.002a2.52 2.52 0 0 1-1.86-.825l-5.014-5.51-7.1 2.265a2.53 2.53 0 0 1-2.023-.217 2.527 2.527 0 0 1-1.2-1.643l-1.586-7.28-7.28-1.587a2.52 2.52 0 0 1-1.644-1.2 2.521 2.521 0 0 1-.218-2.026l2.267-7.096-5.513-5.016A2.523 2.523 0 0 1 0 31.997c0-.707.3-1.387.823-1.863l5.513-5.015L4.07 18.02A2.51 2.51 0 0 1 4.286 16a2.525 2.525 0 0 1 1.643-1.204l7.282-1.585 1.586-7.282a2.519 2.519 0 0 1 3.224-1.86l7.1 2.266L30.134.823A2.518 2.518 0 0 1 31.995 0c.707 0 1.386.3 1.861.823l5.015 5.512 7.1-2.266a2.52 2.52 0 0 1 3.223 1.859l1.585 7.284 7.281 1.585a2.516 2.516 0 0 1 1.861 3.225l-2.266 7.097 5.512 5.015Zm-25.498 13a11.565 11.565 0 0 0 2.91-1.444 1.5 1.5 0 0 1 1.68 2.486 14.58 14.58 0 0 1-3.665 1.811 14.795 14.795 0 0 1-4.574.727 14.652 14.652 0 0 1-10.378-4.316 14.634 14.634 0 0 1-3.678-6.12H15.89a1.5 1.5 0 1 1 0-3h3.508c-.036-.423-.062-.85-.062-1.278 0-.506.027-1.008.077-1.503H15.89a1.5 1.5 0 1 1 0-3h4.154a14.65 14.65 0 0 1 3.6-5.898c4.968-4.968 12.797-5.722 18.614-1.797a1.5 1.5 0 0 1-1.678 2.486c-4.63-3.122-10.86-2.523-14.815 1.431a11.636 11.636 0 0 0-2.524 3.777H37.6a1.5 1.5 0 0 1 0 3H22.447a11.822 11.822 0 0 0-.032 2.783H37.6a1.5 1.5 0 0 1 0 3H23.151a11.658 11.658 0 0 0 2.613 3.998 11.664 11.664 0 0 0 11.905 2.856Z" fill="currentColor"/></svg>
